X: 88
T: Pollonesse #88
M: 3/4
L: 1/16
K: Gm
Q:120
G4 G,4 g4|fgaf d4 c2d2| e2d2 c2B2 A2G2|FGFE D4 C4|B,CB,A, G,2B,2 D2G2|BAGF G4 G,4:|
B2F2 D2F2 B2d2|d2cB ABcA F4|c2D2 F2A2 c2e2|d2c2 dcBA B4|
b2ag fgaf d4|B2AG FGAF D4|d'4a4 b2d'2|d'2c'2 c'2b2 b2a2|
d4 A4 B2d2|d2c2 c2B2 B2A2|GFGA BABc d2B2|BAGF G4G,4:|
N: Står noterad utan förtecken,
N: jag har ändrat tonart till Gm givet vad jag tycker passar melodin

